packages/component_library/lib/src/assets/images/svg/UTA.svg

<?xml version="1.0" encoding="UTF-8" standalone="no"?>
<svg xmlns:rdf="http://www.w3.org/1999/02/22-rdf-syntax-ns#" xmlns="http://www.w3.org/2000/svg" height="257.97553" width="379.89548" version="1.1" xmlns:cc="http://creativecommons.org/ns#" xmlns:dc="http://purl.org/dc/elements/1.1/" viewBox="0 0 379.89548 257.97553"><path d="M379.89548.1262,342.78941,79.76541H193.98649L147.16218,180.22947H105.13387a67.5855,67.5855,0,0,1,2.90286-14.89291,60.94446,60.94446,0,0,1,21.07725-29.281,69.49215,69.49215,0,0,1,6.8154,9.21342c.37863.50483,1.00969.50483,1.13589,0h0L204.84064,0H379.89548Z"/><path d="M35.46533,211.40362a61.45306,61.45306,0,0,1-17.66956,21.20347A74.29536,74.29536,0,0,1,0,188.4332H41.77587a59.53036,59.53036,0,0,1-6.31054,22.97042"/><path d="M69.41612,188.4332v69.54233A73.80693,73.80693,0,0,1,23.7277,238.539a68.36452,68.36452,0,0,0,19.18409-23.47528,66.55361,66.55361,0,0,0,7.194-26.63055Z"/><path d="M38.74681,165.33656a56.5623,56.5623,0,0,1,2.90286,14.89291H0A74.24159,74.24159,0,0,1,17.79577,136.1818a59.00686,59.00686,0,0,1,20.951,29.15476"/><path d="M69.41612,110.81336v69.41611H49.97961a70.74566,70.74566,0,0,0-3.4077-17.54333,68.44121,68.44121,0,0,0-22.97043-32.56248,73.01982,73.01982,0,0,1,26.75675-15.77639,76.83812,76.83812,0,0,1,19.05789-3.53391"/><path d="M96.93015,180.22947H77.61984V110.81336a73.30527,73.30527,0,0,1,45.81464,19.3103,67.12085,67.12085,0,0,0-23.09663,32.56248,71.87412,71.87412,0,0,0-3.4077,17.54333"/><path d="M123.43448,238.66523a73.88429,73.88429,0,0,1-45.94085,19.3103V188.4332H96.80394a70.95458,70.95458,0,0,0,7.194,26.63055,69.49738,69.49738,0,0,0,19.4365,23.60148"/><path d="M147.16218,188.4332a73.63971,73.63971,0,0,1-17.922,44.17389A60.862,60.862,0,0,1,105.13387,188.307h42.02831Z"/></svg>

<?xml version="1.0"?>
<svg width="379.89548" height="257.97553" xmlns="http://www.w3.org/2000/svg" xmlns:svg="http://www.w3.org/2000/svg" version="1.1">

 <g class="layer">
  <title>Layer 1</title>
  <path d="m379.9,0.13l-37.11,79.64l-148.8,0l-46.83,100.46l-42.03,0a67.59,67.59 0 0 1 2.91,-14.89a60.94,60.94 0 0 1 21.07,-29.28a69.49,69.49 0 0 1 6.82,9.21c0.38,0.5 1.01,0.5 1.14,0l0,0l67.77,-145.27l175.06,0l0,0.13z" fill="#ffffff" id="svg_1" transform="matrix(1, 0, 0, 1, 0, 0)"/>
  <path d="m35.47,211.4a61.45,61.45 0 0 1 -17.67,21.21a74.3,74.3 0 0 1 -17.8,-44.18l41.78,0a59.53,59.53 0 0 1 -6.31,22.97" fill="#ffffff" id="svg_2" transform="matrix(1, 0, 0, 1, 0, 0)"/>
  <path d="m69.42,188.43l0,69.55a73.81,73.81 0 0 1 -45.69,-19.44a68.36,68.36 0 0 0 19.18,-23.48a66.55,66.55 0 0 0 7.2,-26.63l19.31,0z" fill="#ffffff" id="svg_3" transform="matrix(1, 0, 0, 1, 0, 0)"/>
  <path d="m38.75,165.34a56.56,56.56 0 0 1 2.9,14.89l-41.65,0a74.24,74.24 0 0 1 17.8,-44.05a59.01,59.01 0 0 1 20.95,29.16" fill="#ffffff" id="svg_4" transform="matrix(1, 0, 0, 1, 0, 0)"/>
  <path d="m69.42,110.81l0,69.42l-19.44,0a70.75,70.75 0 0 0 -3.41,-17.54a68.44,68.44 0 0 0 -22.97,-32.57a73.02,73.02 0 0 1 26.76,-15.77a76.84,76.84 0 0 1 19.06,-3.54" fill="#ffffff" id="svg_5" transform="matrix(1, 0, 0, 1, 0, 0)"/>
  <path d="m96.93,180.23l-19.31,0l0,-69.42a73.31,73.31 0 0 1 45.81,19.31a67.12,67.12 0 0 0 -23.09,32.57a71.87,71.87 0 0 0 -3.41,17.54" fill="#ffffff" id="svg_6"/>
  <path d="m123.43,238.67a73.88,73.88 0 0 1 -45.94,19.31l0,-69.55l19.31,0a70.95,70.95 0 0 0 7.2,26.63a69.5,69.5 0 0 0 19.43,23.61" fill="#ffffff" id="svg_7" transform="matrix(1, 0, 0, 1, 0, 0)"/>
  <path d="m147.16,188.43a73.64,73.64 0 0 1 -17.92,44.18a60.86,60.86 0 0 1 -24.11,-44.3l42.03,0l0,0.12z" fill="#ffffff" id="svg_8" transform="matrix(1, 0, 0, 1, 0, 0)"/>
 </g>
</svg>
